app-template/mira/img/notifications-blue.svg

<?xml version="1.0" encoding="UTF-8" standalone="no"?>
<!-- Generator: Adobe Illustrator 21.0.0, SVG Export Plug-In . SVG Version: 6.00 Build 0)  -->

<svg
   xmlns:dc="http://purl.org/dc/elements/1.1/"
   xmlns:cc="http://creativecommons.org/ns#"
   xmlns:rdf="http://www.w3.org/1999/02/22-rdf-syntax-ns#"
   xmlns:svg="http://www.w3.org/2000/svg"
   xmlns="http://www.w3.org/2000/svg"
   xmlns:sodipodi="http://sodipodi.sourceforge.net/DTD/sodipodi-0.dtd"
   xmlns:inkscape="http://www.inkscape.org/namespaces/inkscape"
   version="1.1"
   id="Слой_1"
   x="0px"
   y="0px"
   viewBox="0 0 183.39999 182.39999"
   enable-background="new 0 0 500 500"
   xml:space="preserve"
   inkscape:version="0.91 r13725"
   sodipodi:docname="notifications-blue.svg"
   width="183.39999"
   height="182.39999"><metadata
     id="metadata3468"><rdf:RDF><cc:Work
         rdf:about=""><dc:format>image/svg+xml</dc:format><dc:type
           rdf:resource="http://purl.org/dc/dcmitype/StillImage" /><dc:title></dc:title></cc:Work></rdf:RDF></metadata><defs
     id="defs3466" /><sodipodi:namedview
     pagecolor="#ffffff"
     bordercolor="#666666"
     borderopacity="1"
     objecttolerance="10"
     gridtolerance="10"
     guidetolerance="10"
     inkscape:pageopacity="0"
     inkscape:pageshadow="2"
     inkscape:window-width="640"
     inkscape:window-height="480"
     id="namedview3464"
     showgrid="false"
     fit-margin-top="0"
     fit-margin-left="0"
     fit-margin-right="0"
     fit-margin-bottom="0"
     inkscape:zoom="1.7"
     inkscape:cx="91.9"
     inkscape:cy="91.4"
     inkscape:window-x="0"
     inkscape:window-y="0"
     inkscape:window-maximized="1"
     inkscape:current-layer="Слой_1" /><g
     id="g3460"
     transform="translate(-158.1,-159)"><path
       d="m 334.2,296.3 c -16.5,-14.3 -31.7,-34.4 -31.7,-84.6 0,-29.1 -23.7,-52.7 -52.7,-52.7 -29.1,0 -52.8,23.7 -52.8,52.7 0,50.3 -15.2,70.4 -31.7,84.6 -4.6,4 -7.2,9.7 -7.2,15.7 0,3.3 2.7,6 6,6 l 56.9,0 c 2.8,13.3 14.6,23.4 28.8,23.4 14.1,0 26,-10 28.8,-23.4 l 56.9,0 c 3.3,0 6,-2.7 6,-6 -0.1,-6 -2.7,-11.7 -7.3,-15.7 l 0,0 z m -84.5,33.2 c -7.5,0 -13.9,-4.7 -16.3,-11.4 l 32.6,0 c -2.4,6.6 -8.8,11.4 -16.3,11.4 l 0,0 z m -77.3,-23.4 c 0.2,-0.2 0.4,-0.5 0.7,-0.7 25.2,-21.7 35.9,-49.7 35.9,-93.7 0,-22.5 18.3,-40.7 40.8,-40.7 22.5,0 40.7,18.3 40.7,40.7 0,43.9 10.7,71.9 35.9,93.7 0.2,0.2 0.5,0.4 0.7,0.7 l -154.7,0 z m 0,0"
       id="path3462"
       inkscape:connector-curvature="0"
       style="fill:#344e9d" /></g></svg>

<?xml version="1.0" encoding="utf-8"?>
<!-- Generator: Adobe Illustrator 21.0.0, SVG Export Plug-In . SVG Version: 6.00 Build 0)  -->
<svg version="1.1" id="Слой_1" xmlns="http://www.w3.org/2000/svg" xmlns:xlink="http://www.w3.org/1999/xlink" x="0px" y="0px"
	 viewBox="0 0 500 500" enable-background="new 0 0 500 500" xml:space="preserve">
<g>
	<path fill="#344E9D" d="M334.2,296.3c-16.5-14.3-31.7-34.4-31.7-84.6c0-29.1-23.7-52.7-52.7-52.7c-29.1,0-52.8,23.7-52.8,52.7
		c0,50.3-15.2,70.4-31.7,84.6c-4.6,4-7.2,9.7-7.2,15.7c0,3.3,2.7,6,6,6h56.9c2.8,13.3,14.6,23.4,28.8,23.4c14.1,0,26-10,28.8-23.4
		h56.9c3.3,0,6-2.7,6-6C341.4,306,338.8,300.3,334.2,296.3L334.2,296.3z M249.7,329.5c-7.5,0-13.9-4.7-16.3-11.4H266
		C263.6,324.7,257.2,329.5,249.7,329.5L249.7,329.5z M172.4,306.1c0.2-0.2,0.4-0.5,0.7-0.7c25.2-21.7,35.9-49.7,35.9-93.7
		c0-22.5,18.3-40.7,40.8-40.7c22.5,0,40.7,18.3,40.7,40.7c0,43.9,10.7,71.9,35.9,93.7c0.2,0.2,0.5,0.4,0.7,0.7H172.4z M172.4,306.1"
		/>
</g>
</svg>
